assets/images/img_nav_24x24.svg

<svg width="24" height="24" viewBox="0 0 24 24" fill="none" xmlns="http://www.w3.org/2000/svg">
<path fill-rule="evenodd" clip-rule="evenodd" d="M6 21.8042L12.0868 18H20C21.1046 18 22 17.1046 22 16V4C22 2.89543 21.1046 2 20 2H4C2.89543 2 2 2.89543 2 4V16C2 17.1046 2.89543 18 4 18H6V21.8042ZM11.5132 16L8 18.1958V16H4V4H20V16H11.5132ZM7 13V11H14V13H7ZM7 7V9H16V7H7Z" fill="#222222"/>
</svg>

<svg xmlns="http://www.w3.org/2000/svg" width="24" height="24" fill="none" viewBox="0 0 24 24"><path fill="#222" fill-rule="evenodd" d="M6 21.804 12.087 18H20a2 2 0 0 0 2-2V4a2 2 0 0 0-2-2H4a2 2 0 0 0-2 2v12a2 2 0 0 0 2 2h2v3.804ZM11.513 16 8 18.196V16H4V4h16v12h-8.487ZM7 13v-2h7v2H7Zm0-6v2h9V7H7Z" clip-rule="evenodd"/></svg>
